X: 4
T: Jimmy Lyons
Z: birlibirdie
S: https://thesession.org/tunes/171#setting12813
R: strathspey
M: 4/4
L: 1/8
K: Amaj
M: 3/4
|:A>a g>a cA|F>A d>c (3BcB|A>a g>a eA|1 F>A G>B B/c/A:|2 F>A G/A/B c/B/A||
|:e<c c>e f<a|e>c c>e d/c/B|e<c c>e f/e/d|1 (3gfe (3dcB (3Acd:|2 (3gbg (3efg a2c/B/||

